X:242
T: Nigun Sameach
O:klezmer
R: bulgar, freylach
B: Kammen 9#12
M: 2/4
L: 1/8
K: Am
|: "Am"A,z Cz | Ez Az | c4- | c4 \
| dc Bc | BA ^GA | "E7"B4- | BE FE |
| "E7"E3 ^G B3 A | "Dm"(3^GAB (3AGF | "E"E4 | BA ^GF \
| "E7"ED CB, |1 "Am"A,4 | (3E^DC (3CB,A, :|2 "Am"A,4- | HA,4 |]
|: "Am"EA "(E7)"cB | "Am"AG "A7"FE | "Dm"EF FF | F4 \
| "(G7)"DF BA | "(E7)"^GF ED | "Am"^DE EE | E4 |
| "E7"EF ^GA | Bc (3cBA | ^G4- | G4 \
| BA ^GF | ED CB, | "Am"A,4- | A,2 z2 :|
|: "Am"z2 e^d | e2 "Dm"f2 | "Am"e3 c | A4 \
| "Dm"f3 e | "G7"de f[gd] | "C"e4- | e4 |
| "Dm"fe d2  | dc B2 | "E7"dc B2 |  BA ^G2 \
| EF ^GA | Bc  ^GB |1 "Am"A4 | (3e^dc (3cBA :|2 "Am"A4 | cA "da Capo"EC |]





